src/assets/img/providers/novomatic.svg

<svg width="136" height="18" viewBox="0 0 136 18" fill="none" xmlns="http://www.w3.org/2000/svg">
<path fill-rule="evenodd" clip-rule="evenodd" d="M127.03 18.001C125.731 18.001 124.455 17.8249 123.245 17.4729C122.035 17.1208 120.957 16.5487 120.033 15.8005C119.109 15.0523 118.361 14.1061 117.833 12.9839C117.283 11.8836 117.019 10.5413 117.019 9.04498C117.019 7.57065 117.283 6.25036 117.833 5.12811C118.361 4.00586 119.109 3.03765 120.033 2.28948C120.957 1.54132 122.035 0.947182 123.245 0.573098C124.455 0.199015 125.709 0.000976562 127.03 0.000976562C129.692 0.000976562 132.156 0.881167 133.762 1.56332C133.938 1.65134 135.016 2.11344 135.016 2.11344L133.344 4.90807L133.102 4.75403C131.452 3.76381 129.582 3.12567 127.866 2.92762C127.558 2.88362 127.294 2.88361 127.03 2.88361H126.898H126.81C126.017 2.90562 125.225 3.03765 124.499 3.2797C123.707 3.54376 123.003 3.93985 122.409 4.46797C121.815 4.97408 121.331 5.63422 120.979 6.36038C120.627 7.10855 120.451 7.96674 120.451 8.93496C120.451 9.90317 120.627 10.7614 120.979 11.5095C121.331 12.2577 121.815 12.8958 122.409 13.4019C123.003 13.9081 123.707 14.3042 124.499 14.5902C125.291 14.8543 126.149 14.9863 127.03 14.9863C129.868 14.9863 132.244 13.688 133.74 12.5878L134.004 12.4117L135.5 14.9863L135.28 15.1403C133.41 16.3286 130.55 17.8029 127.58 17.979C127.478 17.979 127.382 17.9848 127.288 17.9905C127.2 17.9958 127.115 18.001 127.03 18.001ZM3.8002 5.30429L14.6908 17.8911H17.727V0.221166H14.4268V12.3239L3.9542 0.221166H0.5V17.8911H3.8002V5.30429ZM27.5176 5.10568C26.9455 5.10568 26.3735 5.2157 25.8455 5.41374C25.2954 5.61178 24.8114 5.89785 24.3714 6.27194C23.9534 6.64602 23.6013 7.10812 23.3373 7.63624C23.0733 8.16436 22.9413 8.78049 22.9413 9.48464C22.9413 10.1668 23.0733 10.8049 23.3373 11.3331C23.6013 11.8612 23.9314 12.3233 24.3714 12.6974C24.7894 13.0715 25.2954 13.3575 25.8455 13.5555C26.3955 13.7536 26.9455 13.8636 27.5176 13.8636C28.0896 13.8636 28.6616 13.7536 29.1897 13.5555C29.7397 13.3575 30.2237 13.0715 30.6638 12.6974C31.0818 12.3233 31.4338 11.8612 31.6978 11.3331C31.9618 10.8049 32.0938 10.1888 32.0938 9.48464C32.0938 8.80249 31.9618 8.18636 31.6978 7.63624C31.4338 7.10812 31.0818 6.64602 30.6638 6.27194C30.2457 5.89785 29.7397 5.61178 29.1897 5.41374C28.6616 5.2157 28.0896 5.10568 27.5176 5.10568ZM27.5176 16.3722C26.4835 16.3722 25.4935 16.2402 24.5694 15.9981C23.6453 15.734 22.8313 15.3159 22.1273 14.7438C21.4452 14.1717 20.8952 13.4235 20.4772 12.5653C20.0811 11.6851 19.8831 10.6729 19.8831 9.50666C19.8831 8.3404 20.0811 7.30617 20.4772 6.42597C20.8732 5.54578 21.4232 4.81961 22.1273 4.24748C22.8093 3.67536 23.6233 3.23526 24.5474 2.9492C25.4715 2.66313 26.4615 2.5091 27.4956 2.5091C28.5296 2.5091 29.5197 2.66313 30.4437 2.9492C31.3678 3.23526 32.1819 3.67536 32.8639 4.24748C33.5459 4.81961 34.118 5.56778 34.514 6.42597C34.91 7.30617 35.108 8.3404 35.108 9.50666C35.108 10.6729 34.91 11.7071 34.514 12.5653C34.118 13.4455 33.5679 14.1717 32.8639 14.7438C32.1819 15.3159 31.3678 15.734 30.4217 15.9981C29.5417 16.2402 28.5516 16.3722 27.5176 16.3722ZM57.0209 5.10568C56.4488 5.10568 55.8768 5.2157 55.3488 5.41374C54.7987 5.61178 54.3147 5.89785 53.8747 6.27194C53.4567 6.64602 53.1046 7.10812 52.8406 7.63624C52.5766 8.16436 52.4446 8.78049 52.4446 9.48464C52.4446 10.1888 52.5766 10.8049 52.8406 11.3331C53.1046 11.8612 53.4347 12.3233 53.8747 12.6974C54.2927 13.0715 54.7987 13.3575 55.3488 13.5555C55.8988 13.7536 56.4708 13.8636 57.0209 13.8636C57.5929 13.8636 58.1649 13.7536 58.693 13.5555C59.243 13.3575 59.727 13.0715 60.1671 12.6974C60.5851 12.3233 60.9371 11.8612 61.2011 11.3331C61.4651 10.8049 61.5971 10.1888 61.5971 9.48464C61.5971 8.78049 61.4651 8.18636 61.2011 7.63624C60.9371 7.10812 60.5851 6.64602 60.1671 6.27194C59.749 5.89785 59.243 5.61178 58.693 5.41374C58.1649 5.2157 57.5929 5.10568 57.0209 5.10568ZM57.0209 16.3722C55.9868 16.3722 54.9967 16.2402 54.0727 15.9981C53.1486 15.734 52.3346 15.3159 51.6306 14.7438C50.9485 14.1717 50.3985 13.4235 49.9804 12.5653C49.5844 11.6851 49.3644 10.6729 49.3644 9.50666C49.3644 8.3404 49.5624 7.30617 49.9804 6.42597C50.3765 5.54578 50.9265 4.81961 51.6306 4.24748C52.3126 3.67536 53.1266 3.23526 54.0507 2.9492C54.9747 2.66313 55.9648 2.5091 56.9989 2.5091C58.0329 2.5091 59.023 2.66313 59.947 2.9492C60.8711 3.23526 61.6851 3.67536 62.3672 4.24748C63.0492 4.81961 63.6213 5.56778 64.0173 6.42597C64.4133 7.30617 64.6113 8.3404 64.6113 9.50666C64.6113 10.6729 64.4133 11.7071 64.0173 12.5653C63.6213 13.4455 63.0712 14.1717 62.3672 14.7438C61.6851 15.3159 60.8711 15.734 59.925 15.9981C59.067 16.2402 58.0769 16.3722 57.0209 16.3722ZM43.6882 16.2626H40.806L34.9096 2.6636H38.1878L42.2581 12.1257L46.3063 2.6636H49.5845L43.6882 16.2626ZM101.53 5.26017V16.2626H104.589V5.26017H109.341V2.6636H96.7782V5.26017H101.53ZM114.709 2.6636H111.607V16.2626H114.709V2.6636ZM90.8157 5.98635L92.6858 10.3653H88.9455L90.8157 5.98635ZM93.8078 12.9619L95.2159 16.2626H98.2741L92.2677 2.6636H89.4076L83.4012 16.2626H86.4594L87.8675 12.9619H93.8078ZM74.2698 10.7394L78.6921 2.6636H81.7062V16.2626H79.0001V7.81275L74.2698 16.3066L69.5395 7.81275V16.2626H66.8334V2.6636H69.8255L74.2698 10.7394Z" fill="#919EAB"/>
</svg>

<svg width="136" height="18" fill="none" xmlns="http://www.w3.org/2000/svg"><path fill-rule="evenodd" clip-rule="evenodd" d="M127.03 18.001c-1.299 0-2.575-.176-3.785-.528a9.131 9.131 0 0 1-3.212-1.672 7.952 7.952 0 0 1-2.2-2.817c-.55-1.1-.814-2.443-.814-3.939 0-1.474.264-2.795.814-3.917a8.03 8.03 0 0 1 2.2-2.839 9.598 9.598 0 0 1 3.212-1.716 12.71 12.71 0 0 1 3.785-.572c2.662 0 5.126.88 6.732 1.562.176.088 1.254.55 1.254.55l-1.672 2.795-.242-.154c-1.65-.99-3.52-1.628-5.236-1.826a5.61 5.61 0 0 0-.836-.044h-.22a8.073 8.073 0 0 0-2.311.396 5.945 5.945 0 0 0-2.09 1.188c-.594.506-1.078 1.166-1.43 1.892-.352.749-.528 1.607-.528 2.575 0 .968.176 1.826.528 2.574a5.594 5.594 0 0 0 1.43 1.893 6.712 6.712 0 0 0 2.09 1.188c.792.264 1.65.396 2.531.396 2.838 0 5.214-1.298 6.71-2.398l.264-.176 1.496 2.574-.22.154c-1.87 1.189-4.73 2.663-7.7 2.839-.102 0-.198.006-.292.012-.088.005-.173.01-.258.01ZM3.8 5.304l10.89 12.587h3.037V.221h-3.3v12.103L3.954.22H.5v17.67h3.3V5.304Zm23.718-.198a4.79 4.79 0 0 0-1.672.308 4.712 4.712 0 0 0-1.475.858c-.418.374-.77.836-1.034 1.364-.264.528-.396 1.144-.396 1.849 0 .682.132 1.32.396 1.848s.594.99 1.034 1.364c.418.375.924.66 1.475.859.55.198 1.1.308 1.672.308a4.79 4.79 0 0 0 1.672-.309 4.713 4.713 0 0 0 1.474-.858c.418-.374.77-.836 1.034-1.364.264-.528.396-1.144.396-1.848 0-.683-.132-1.299-.396-1.849a4.567 4.567 0 0 0-1.034-1.364 4.479 4.479 0 0 0-1.474-.858 4.791 4.791 0 0 0-1.672-.308Zm0 11.266c-1.035 0-2.024-.132-2.949-.374a6.777 6.777 0 0 1-2.442-1.254c-.682-.572-1.232-1.32-1.65-2.179-.396-.88-.594-1.892-.594-3.058 0-1.167.198-2.2.594-3.081a5.848 5.848 0 0 1 1.65-2.179 6.925 6.925 0 0 1 2.42-1.298 9.953 9.953 0 0 1 2.949-.44c1.034 0 2.024.154 2.948.44a6.925 6.925 0 0 1 2.42 1.298 6.287 6.287 0 0 1 1.65 2.179c.396.88.594 1.914.594 3.08 0 1.167-.198 2.201-.594 3.06a5.848 5.848 0 0 1-1.65 2.178c-.682.572-1.496.99-2.442 1.254-.88.242-1.87.374-2.904.374ZM57.02 5.106a4.79 4.79 0 0 0-1.672.308 4.712 4.712 0 0 0-1.474.858c-.418.374-.77.836-1.034 1.364-.264.528-.396 1.144-.396 1.849 0 .704.132 1.32.396 1.848s.594.99 1.034 1.364c.418.375.924.66 1.474.859.55.198 1.122.308 1.672.308a4.79 4.79 0 0 0 1.672-.309 4.713 4.713 0 0 0 1.474-.858c.418-.374.77-.836 1.034-1.364.264-.528.396-1.144.396-1.848 0-.705-.132-1.299-.396-1.849a4.567 4.567 0 0 0-1.034-1.364 4.479 4.479 0 0 0-1.474-.858 4.791 4.791 0 0 0-1.672-.308Zm0 11.266c-1.034 0-2.024-.132-2.948-.374a6.777 6.777 0 0 1-2.442-1.254c-.682-.572-1.233-1.32-1.65-2.179-.397-.88-.617-1.892-.617-3.058 0-1.167.198-2.2.616-3.081a5.849 5.849 0 0 1 1.65-2.179 6.925 6.925 0 0 1 2.42-1.298A9.953 9.953 0 0 1 57 2.51c1.034 0 2.024.154 2.948.44a6.926 6.926 0 0 1 2.42 1.298 6.287 6.287 0 0 1 1.65 2.179c.396.88.594 1.914.594 3.08 0 1.167-.198 2.201-.594 3.06a5.848 5.848 0 0 1-1.65 2.178c-.682.572-1.496.99-2.442 1.254-.858.242-1.848.374-2.904.374Zm-13.333-.11h-2.882L34.91 2.665h3.278l4.07 9.462 4.048-9.462h3.279l-5.897 13.599ZM101.53 5.26v11.003h3.059V5.26h4.752V2.664H96.778V5.26h4.752Zm13.179-2.596h-3.102v13.599h3.102v-13.6ZM90.816 5.986l1.87 4.38h-3.74l1.87-4.38Zm2.992 6.976 1.408 3.3h3.058L92.268 2.665h-2.86L83.4 16.263h3.058l1.409-3.301h5.94ZM74.27 10.739l4.422-8.075h3.014v13.599H79v-8.45l-4.73 8.494-4.73-8.494v8.45h-2.707v-13.6h2.993l4.444 8.076Z" fill="#919EAB"/></svg>
